X:1
T: J. Scott Skinner
C:J. Murdoch Henderson
R:Reel
Q: 232
K:A
M:4/4
L:1/8
|:d|cA A1/2A1/2A EG AE|CE Ac ea ec|dB B1/2B1/2B FA Bc|df ba gb ed|
cA A1/2A1/2A EG AE|CE Ac ea ec|fd cd ea ge|1fd BG A3:|2fd BG A4|
|:a2 ga ca ga|Aa ga fe cA|Bb ^ab Bf b=a|gf e^d e=f ^fg|
aA Aa ge bg|fd fa ec ce|fd d2 ea ga|1fd BG A4:|2fd BG A3||
